X:1
T:Enforce Yourself as Goddes Own Knyght
T:Edmund Turges
T:Copyright © 2002 by CPDL
T:This edition can be fully distributed, duplicated, performed and recorded
T:Enforce Yourself as Goddes Own Knyght
T:CPDL
T:CPDL
T:CPDL
C:Edmund Turges
Z:CPDL
%%score [ 1 2 3 ]
L:1/8
M:4/4
K:C
V:1 alto2 nm="Soprano" snm="S."
V:2 alto1 nm="Alto" snm="A."
V:3 tenor nm="Bass" snm="B."
V:1
 G2 |[M:2/2][K:treble] z8 | z8 | z8 | z8 | z8 | z8 | z4 z2 E2 | c3 B A2 G2 | G2 F2 E2 z G | %10
w: |||||||En-|force your self as|God- des knight, to|
w: ||||||||||
 AA G2 G3 F | E2 D2 C2 z2 | z4 z2 B2 | c2 e3 d2 c- | cdBA c3 G- | GAGE- E/F/G E2 | %16
w: streng- then your com- mons|in their right.|||||
w: ||||||
[M:3/2] F/E/D/C/ D2 C8 |:[M:2/2] c2 c2 e4 | d4 c2 B2 | (AG) (G4 F2) | G4 z2 E2 | G2 G2 A4 | %22
w: |Sov- 'reign Lord|in earth most|ex- * cel- *|lent, whom|God hath chos'n|
w: |God hath given|you of his|good- * * *|nes, wis-|dom with strength|
 z2 E2 G2 F2 | E4 z2 A2 | G2 F2 E4 | D2 A2 B2 (d2- | d2 c2 d4) | z2 A2 d3 c | (B2 A2) G4 | c4 A4 | %30
w: our guide to|be, with|gifts so great|and e- vi- dent|_ _ _|of mar- tial|pow- * er|and al-|
w: and sov- 'reign-|ty, all|mis- done things|to be re- dress.|_ _ _|And spe- ci-|al- * ly|hurts of|
 F4 D4 | G4 EE (E2 | C4) z2 c2 | B2 A2 G2 c2 | B2 A2 G2 c2 | B4 z2 e2 | (d3 c) B2 A2 | %37
w: so high|_ dig- ni- ty.|_ Since|it is so, now|let your la- bour|be, en-|for- * cing your-|
w: thy com-|* mon- al- ty,|_ which|cry and call un-|to your ma- jes-|ty, in|your _ per- son|
 G2 G2 A2 F2 | E4 z2 E2 | F2 E2 D2 A2 | B2 c2 d3 c | B2 A2 G2 c2 | B A2 G- GE D2 | C2 z2 z4 | %44
w: self with all your|might, to|strengthen your com- mons|in their right. _|_ _ _ _|||
w: all their hope is|pight, to|have re- cover of|their un- right. _|_ _ _ _|||
 z2 B2 c2 e2- |[M:3/2] e d2 c- cdBA c4 :| %46
w: ||
w: ||
[M:2/2]"^First few notes onlyindicated in original" z2 E2 c3 B | A2 G2 G2 F2 | E2 z G AA G2 | %49
w: En- force your|self as God- des|knight, to streng- then your|
w: |||
 G3 F E2 D2 | C2 z2 z4 | z2 B2 c2 e2- | e d2 c- cdBA | c3 G- GAGE- | E/F/G E2 F/E/D/C/ D2 | C8- | %56
w: com- mons in their|right.||||||
w: |||||||
 C8 |] %57
w: |
w: |
V:2
 G2 |[M:2/2][K:treble] z4 z2 G2 | c3 B A2 G2 | G2 F2 E2 z G | AA G2 G3 F | E2 D2 (C2 G2 | %6
w: |En-|force your- self as|God's own knight, to|streng- then your com- mons|in their right. _|
w: ||||||
 EC D2 C2 G,C | B,CDB, C2) E2 | G3 G E3 D | E2 F2 G2 z E | CC C2 E3 D | C2 G,2 G4 | E3 D C2 G,2 | %13
w: _ _ _ _ _ _|* * * * * En-|force your- self as|God- des knight, to|streng- then your com- mons|in their right.|_ _ _ _|
w: |||||||
 C2 G4 E2 | D4 C4 | E3 G- G/F/E/D/CB, |[M:3/2] A,2 B,2 C2 A,2- A,4 |:[M:2/2] E2 E2 G4 | %18
w: ||||Sov- 'reign Lord|
w: ||||God hath given|
 (G3 F) E2 (D2- | DC B,2) A,2 A,2 | G,4 z2 C2 | C2 B,2 A,4 | C4 E2 A2 | G4 z2 F2 | E2 A2 G4 | %25
w: in _ earth most|_ _ _ ex- cel-|lent, whom|God hath chos'n|our guide to|be with|gifts so great|
w: you _ of his|_ _ _ good- *|ness, wis-|dom with strength|and sov- 'reign-|ty, all|mis- done things|
 F4 D4 | E4 D4 | z2 D4 (G2- | G2 F2) E2 C2- | C2 F4 D2- | D2 (A3 G) F2 | E4 CC (C2 | E4) z2 E2 | %33
w: and e-|vi- dent|of mar-|* * tial pow-|* er and|_ all- * so|high dig- ni- ty.|_ Since|
w: to be|re- dress.|And spe-|* ci- al- ly|_ hurts of|_ thy- * com-|* mon- al- ty,|_ which|
 G3 F E2 C2 | D2 C2 B,2 A,2 | G,4 z2 G2 | G4 G2 F2 | E2 C2 F2 D2 | C4 z2 G2 | A2 G2 F2 F2 | %40
w: it is so, now|let your la- bour|be, en-|for- cing your-|self with all your|might, to|strengthen your com- mons|
w: cry and call un-|to your ma- jes-|ty, in|your per- son|all their hope is|pight, to|have re- cover of|
 G2 E2 D2 G2- | G2 F2 E C2 E | D2 C2 z2 F2 | E2 A2 G3 F | E2 D2 C2 G2- |[M:3/2] GF E2 D4 C4 :| %46
w: in their right. _|_ _ _ _ _|||||
w: their un- right. _|_ _ _ _ _|||||
[M:2/2] z2 E2 G3 G | E3 D E2 F2 | G2 z E CC C2 | E3 D C2 G,2 | G4 E3 D | C2 G,2 C2 G2- | G2 E2 D4 | %53
w: En- force your|self as God- des|knight, to streng- then your|com- mons in their|right. _ _|_ _ _ _||
w: |||||||
 C4 E3 G- | G/F/E/D/CB, A,2 B,2 | C2 A,6- | A,8 |] %57
w: ||||
w: ||||
V:3
 C2 |[M:2/2][K:bass] z8 | z8 | z8 | z8 | z8 | z8 | z4 z2 C2 | C3 C C2 G,2 | C2 D2 C2 z C, | %10
w: |||||||En-|force your self as|God- des knight, to|
w: ||||||||||
 F,F, E,2 C,2 G,2 | A,2 B,2 C4 | z2 B,2 C2 D2 | C4 z2 C2 | G,4 z2 C2- | C8 | %16
w: streng- then your com- *|in their right.|||||
w: ||||||
[M:3/2] D/C/B,/A,/ G,2 E,C,F,>G, F,4 |:[M:2/2] C2 C2 C4 | G,4 z2 G,2 | (F,2 G,2) D,4 | E,3 C, C,4 | %21
w: |Sov- 'reign Lord|_ in|earth _ most|ex- cel- lent,|
w: |God hath given|you of|his _ _|good- * ness,|
 z2 E,2 F,2 D,2 | C,4 z2 C2 | C2 C2 D4 | z2 A,2 C2 C2 | D2 D2 D2 B,2 | A,4 z2 D,2 | F,F, F,2 G,4- | %28
w: whom God hath|chos'n our|guide to be,|with gifts so|great and e- vi-|dent of|mar- tial power and|
w: wis- dom with|strength and|sov- 'reign- ty,|all mis- done|things to be re-|dress. And|spe- ci- al- ly|
 G,2 C6 | A,4 (F,4 | D,4) z2 D2 | C6 C2 | A,4 z2 A,2 | G,2 C2 C2 A,2 | G,2 A,2 E,2 F,2 | %35
w: _ al-|so high|_ di-|* gni-|ty. Since|it is so, now|let your la- bour|
w: _ hurts|of thy|_ com-|mon- al-|lty, which|cry and call un-|to your ma- jes-|
 G,2 D2 C4 | G,4"^Bass A inoriginal" A,2 C2- | C2 E2 D2 D2 | A,4 z2 C2 | C2 C2 D2 D2 | %40
w: be, en- for-|cing your- self|_ with all your|might, to|strengthen your com- mons|
w: ty, in your|oer- son all|_ their hope is|pight, to|have re- cover of|
 G,2 A,2 B,2 G,2- | G,2 D,2 E,2 F,G,- | G,D,F,E, C,2 z C- | CEDA, B,CED | C2 G,2 z A,G,E,- | %45
w: in their right. _|_ _ _ _ _||||
w: their un- right. _|_ _ _ _ _||||
[M:3/2] E,/F,/G,C,E, F,G,>F,G, C,4 :|[M:2/2] z2 C2 C3 C | C2 G,2 C2 D2 | C2 z C, F,F, E,2 | %49
w: |En- force your|self as God- des|knight, to streng- then your|
w: ||||
 C,2 G,2 A,2 B,2 | C4 z2 B,2 | C2 D2 C4 | z2 C2 G,4 | z2 C6- | C4 D/C/B,/A,/ G,2 | E,C,F,>G, F,4- | %56
w: com- * mons their|right. *||||||
w: |||||||
 F,8 |] %57
w: |
w: |

